X:79
T:score168
L:1/8
Q:1/4=96
M:6/8
I:linebreak $
K:A
!ff! z .E.A .c.e.a | c' zc'/c'/ c' z(a/b/) | c' zc'/c'/ c' z(a/b/) |$ c' zc'/c'/ .c'.b.c' | %4
 (f'3 e'3) | d' ze/e/ e zd' | c' ze/e/ e zc' |$ (bc').b (ag).f | (b3 e) z2 |] %9
